X: 115
M: 2/4
L: 1/16
K: G
V: 1
|:\
|:\
de=f2 e2d2 | cBA^G A2A,2 | (cde2) d2c2 | BAGF G2G,2 |\
V: 2 clef=bass middle=d
|: g4g4 | g4g4 | c'2b2a2g2 | d4d4 | g4g4 | g4g4 | a4A4 | d8 :|
|: b4^g4 | a4A4 | a4^g4 | g4G4 | g4g4 | g4g4 | c4d4 | g4g4 :|

